(.../Documents/eagle/pcb-gcode/pcb-gcode.ulp)
(Copyright 2005 - 2012 by John Johnson)
(See readme.txt for licensing terms.)
(This file generated from the board:)
(.../7 segment display breakout.brd)
(Current profile is .../eagle/pcb-gcode/profiles/emc.pp  )
(This file generated 23/11/2015 17:55:38)
(Settings from pcb-machine.h)
(spindle on time = 0.1000)
(  Tool Size)
(0.1000 )
(spindle speed = 30000.0000)
(tool change at 0.0000 0.0000 1.0000 )
(feed rate xy = F200.00 )
(feed rate z  = F200.00 )
(Z Axis Settings)
(  High     Up        Down     Drill)
(1.0000 	2.0000 	-0.2000 	-1.5000 )
(Settings from pcb-defaults.h)
(isolate min = 0.1100)
(isolate max = 0.3500)
(isolate step = 0.2500)
(Generated bottom outlines, )
(Unit of measure: mm)
(Metric Mode)
G21
(Absolute Coordinates)
G90
S30000
G00 Z1.0000 
G00 X0.0000 Y0.0000 
M03
G04 P0.100000
G00 Z2.0000 
G00 X-2.0868 Y7.2722 
G01 Z-0.2000 F200.00 
G01 X-8.4368 Y0.9222 F200.00 
G01 X-8.5422 Y0.8168 
G01 X-8.6714 Y0.7422 
G01 X-8.8154 Y0.7036 
G01 X-21.5339 Y0.7036 
G01 X-21.6083 Y0.7036 
G01 X-21.6646 Y0.7036 
G01 X-21.7009 Y0.7096 
G01 X-21.7542 Y0.7276 
G01 X-21.8086 Y0.7422 
G01 X-21.8421 Y0.7574 
G01 X-21.8890 Y0.7886 
G01 X-21.9378 Y0.8168 
G01 X-37.1290 Y10.9486 
G01 X-37.1778 Y10.9768 
G01 X-37.2062 Y11.0001 
G01 X-37.2434 Y11.0424 
G01 X-37.2832 Y11.0822 
G01 X-37.3047 Y11.1121 
G01 X-37.3296 Y11.1626 
G01 X-37.3578 Y11.2114 
G01 X-37.3708 Y11.2458 
G01 X-37.3818 Y11.3010 
G01 X-37.3964 Y11.3554 
G01 X-37.4000 Y11.3920 
G01 X-37.3964 Y11.4483 
G01 X-37.3964 Y11.9388 
G01 X-37.4863 Y11.9846 
G01 X-37.6457 Y12.1005 
G01 X-37.7851 Y12.2398 
G01 X-37.9010 Y12.3993 
G01 X-37.9905 Y12.5749 
G01 X-38.0514 Y12.7624 
G01 X-38.0822 Y12.9570 
G01 X-38.0822 Y15.3385 
G01 X-38.0514 Y15.5332 
G01 X-37.9905 Y15.7207 
G01 X-37.9010 Y15.8963 
G01 X-37.7851 Y16.0557 
G01 X-37.6457 Y16.1951 
G01 X-37.4863 Y16.3110 
G01 X-37.3107 Y16.4005 
G01 X-37.1232 Y16.4614 
G01 X-36.9286 Y16.4922 
G01 X-36.7314 Y16.4922 
G01 X-36.5368 Y16.4614 
G01 X-36.3493 Y16.4005 
G01 X-36.1737 Y16.3110 
G01 X-36.0142 Y16.1951 
G01 X-35.8749 Y16.0557 
G01 X-35.7590 Y15.8963 
G01 X-35.6695 Y15.7207 
G01 X-35.6086 Y15.5332 
G01 X-35.5778 Y15.3385 
G01 X-35.5778 Y12.9570 
G01 X-35.6086 Y12.7624 
G01 X-35.6695 Y12.5749 
G01 X-35.7590 Y12.3993 
G01 X-35.8749 Y12.2398 
G01 X-36.0142 Y12.1005 
G01 X-36.1737 Y11.9846 
G01 X-36.2636 Y11.9388 
G01 X-36.2636 Y11.7331 
G01 X-21.4185 Y1.8364 
G01 X-9.1246 Y1.8364 
G01 X-3.1064 Y7.8546 
G01 X-3.1064 Y8.1288 
G01 X-3.1963 Y8.1746 
G01 X-3.3558 Y8.2905 
G01 X-3.4951 Y8.4298 
G01 X-3.6110 Y8.5893 
G01 X-3.7005 Y8.7649 
G01 X-3.7614 Y8.9524 
G01 X-3.7922 Y9.1470 
G01 X-3.7922 Y11.5285 
G01 X-3.7614 Y11.7232 
G01 X-3.7005 Y11.9107 
G01 X-3.6110 Y12.0863 
G01 X-3.4951 Y12.2457 
G01 X-3.3558 Y12.3851 
G01 X-3.1963 Y12.5010 
G01 X-3.0207 Y12.5905 
G01 X-2.8332 Y12.6514 
G01 X-2.6385 Y12.6822 
G01 X-2.4414 Y12.6822 
G01 X-2.2468 Y12.6514 
G01 X-2.0593 Y12.5905 
G01 X-1.8837 Y12.5010 
G01 X-1.7242 Y12.3851 
G01 X-1.5849 Y12.2457 
G01 X-1.4690 Y12.0863 
G01 X-1.3795 Y11.9107 
G01 X-1.3186 Y11.7232 
G01 X-1.2878 Y11.5285 
G01 X-1.2878 Y9.1470 
G01 X-1.3186 Y8.9524 
G01 X-1.3795 Y8.7649 
G01 X-1.4690 Y8.5893 
G01 X-1.5849 Y8.4298 
G01 X-1.7242 Y8.2905 
G01 X-1.8837 Y8.1746 
G01 X-1.9736 Y8.1288 
G01 X-1.9736 Y7.5454 
G01 X-2.0122 Y7.4014 
G01 X-2.0868 Y7.2722 
G00 Z2.0000 
G00 X-4.6268 Y7.2722 
G01 Z-0.2000 F200.00 
G01 X-9.7068 Y2.1922 F200.00 
G01 X-9.8122 Y2.0868 
G01 X-9.9414 Y2.0122 
G01 X-10.0854 Y1.9736 
G01 X-20.2578 Y1.9736 
G01 X-20.3322 Y1.9736 
G01 X-20.3946 Y1.9736 
G01 X-20.4189 Y1.9773 
G01 X-20.4784 Y1.9961 
G01 X-20.5386 Y2.0122 
G01 X-20.5612 Y2.0221 
G01 X-20.6138 Y2.0556 
G01 X-20.6678 Y2.0868 
G01 X-34.5838 Y10.9456 
G01 X-34.6378 Y10.9768 
G01 X-34.6991 Y11.0381 
G01 X-34.7432 Y11.0822 
G01 X-34.7866 Y11.1574 
G01 X-34.8178 Y11.2114 
G01 X-34.8267 Y11.2343 
G01 X-34.8403 Y11.2952 
G01 X-34.8564 Y11.3554 
G01 X-34.8591 Y11.3799 
G01 X-34.8564 Y11.4422 
G01 X-34.8564 Y11.9388 
G01 X-34.9463 Y11.9846 
G01 X-35.1058 Y12.1005 
G01 X-35.2451 Y12.2398 
G01 X-35.3610 Y12.3993 
G01 X-35.4505 Y12.5749 
G01 X-35.5114 Y12.7624 
G01 X-35.5422 Y12.9570 
G01 X-35.5422 Y15.3385 
G01 X-35.5114 Y15.5332 
G01 X-35.4505 Y15.7207 
G01 X-35.3610 Y15.8963 
G01 X-35.2451 Y16.0557 
G01 X-35.1058 Y16.1951 
G01 X-34.9463 Y16.3110 
G01 X-34.7707 Y16.4005 
G01 X-34.5832 Y16.4614 
G01 X-34.3886 Y16.4922 
G01 X-34.1914 Y16.4922 
G01 X-33.9968 Y16.4614 
G01 X-33.8093 Y16.4005 
G01 X-33.6337 Y16.3110 
G01 X-33.4742 Y16.1951 
G01 X-33.3349 Y16.0557 
G01 X-33.2190 Y15.8963 
G01 X-33.1295 Y15.7207 
G01 X-33.0686 Y15.5332 
G01 X-33.0378 Y15.3385 
G01 X-33.0378 Y12.9570 
G01 X-33.0686 Y12.7624 
G01 X-33.1295 Y12.5749 
G01 X-33.2190 Y12.3993 
G01 X-33.3349 Y12.2398 
G01 X-33.4742 Y12.1005 
G01 X-33.6337 Y11.9846 
G01 X-33.7236 Y11.9388 
G01 X-33.7236 Y11.7409 
G01 X-20.1551 Y3.1064 
G01 X-10.3946 Y3.1064 
G01 X-5.6464 Y7.8546 
G01 X-5.6464 Y8.1288 
G01 X-5.7363 Y8.1746 
G01 X-5.8957 Y8.2905 
G01 X-6.0351 Y8.4298 
G01 X-6.1510 Y8.5893 
G01 X-6.2405 Y8.7649 
G01 X-6.3014 Y8.9524 
G01 X-6.3322 Y9.1470 
G01 X-6.3322 Y11.5285 
G01 X-6.3014 Y11.7232 
G01 X-6.2405 Y11.9107 
G01 X-6.1510 Y12.0863 
G01 X-6.0351 Y12.2457 
G01 X-5.8957 Y12.3851 
G01 X-5.7363 Y12.5010 
G01 X-5.5607 Y12.5905 
G01 X-5.3732 Y12.6514 
G01 X-5.1786 Y12.6822 
G01 X-4.9814 Y12.6822 
G01 X-4.7868 Y12.6514 
G01 X-4.5993 Y12.5905 
G01 X-4.4237 Y12.5010 
G01 X-4.2642 Y12.3851 
G01 X-4.1249 Y12.2457 
G01 X-4.0090 Y12.0863 
G01 X-3.9195 Y11.9107 
G01 X-3.8586 Y11.7232 
G01 X-3.8278 Y11.5285 
G01 X-3.8278 Y9.1470 
G01 X-3.8586 Y8.9524 
G01 X-3.9195 Y8.7649 
G01 X-4.0090 Y8.5893 
G01 X-4.1249 Y8.4298 
G01 X-4.2642 Y8.2905 
G01 X-4.4237 Y8.1746 
G01 X-4.5136 Y8.1288 
G01 X-4.5136 Y7.5454 
G01 X-4.5522 Y7.4014 
G01 X-4.6268 Y7.2722 
G00 Z2.0000 
G00 X-7.1668 Y7.2722 
G01 Z-0.2000 F200.00 
G01 X-7.2722 Y7.1668 F200.00 
G01 X-10.9768 Y3.4622 
G01 X-11.0822 Y3.3568 
G01 X-11.2114 Y3.2822 
G01 X-11.3554 Y3.2436 
G01 X-18.9803 Y3.2436 
G01 X-19.0548 Y3.2436 
G01 X-19.1246 Y3.2436 
G01 X-19.2012 Y3.2641 
G01 X-19.2686 Y3.2822 
G01 X-19.3374 Y3.3219 
G01 X-19.3978 Y3.3568 
G01 X-32.0373 Y10.9418 
G01 X-32.0978 Y10.9768 
G01 X-32.1538 Y11.0328 
G01 X-32.2032 Y11.0822 
G01 X-32.2429 Y11.1509 
G01 X-32.2778 Y11.2114 
G01 X-32.2983 Y11.2880 
G01 X-32.3164 Y11.3554 
G01 X-32.3164 Y11.4348 
G01 X-32.3164 Y11.9388 
G01 X-32.4063 Y11.9846 
G01 X-32.5658 Y12.1005 
G01 X-32.7051 Y12.2398 
G01 X-32.8210 Y12.3993 
G01 X-32.9105 Y12.5749 
G01 X-32.9714 Y12.7624 
G01 X-33.0022 Y12.9570 
G01 X-33.0022 Y15.3385 
G01 X-32.9714 Y15.5332 
G01 X-32.9105 Y15.7207 
G01 X-32.8210 Y15.8963 
G01 X-32.7051 Y16.0557 
G01 X-32.5658 Y16.1951 
G01 X-32.4063 Y16.3110 
G01 X-32.2307 Y16.4005 
G01 X-32.0432 Y16.4614 
G01 X-31.8485 Y16.4922 
G01 X-31.6514 Y16.4922 
G01 X-31.4568 Y16.4614 
G01 X-31.2693 Y16.4005 
G01 X-31.0937 Y16.3110 
G01 X-30.9342 Y16.1951 
G01 X-30.7949 Y16.0557 
G01 X-30.6790 Y15.8963 
G01 X-30.5895 Y15.7207 
G01 X-30.5286 Y15.5332 
G01 X-30.4978 Y15.3385 
G01 X-30.4978 Y12.9570 
G01 X-30.5286 Y12.7624 
G01 X-30.5895 Y12.5749 
G01 X-30.6790 Y12.3993 
G01 X-30.7949 Y12.2398 
G01 X-30.9342 Y12.1005 
G01 X-31.0937 Y11.9846 
G01 X-31.1836 Y11.9388 
G01 X-31.1836 Y11.7507 
G01 X-18.8931 Y4.3764 
G01 X-11.6646 Y4.3764 
G01 X-8.1864 Y7.8546 
G01 X-8.1864 Y8.1288 
G01 X-8.2763 Y8.1746 
G01 X-8.4358 Y8.2905 
G01 X-8.5751 Y8.4298 
G01 X-8.6910 Y8.5893 
G01 X-8.7805 Y8.7649 
G01 X-8.8414 Y8.9524 
G01 X-8.8722 Y9.1470 
G01 X-8.8722 Y11.5285 
G01 X-8.8414 Y11.7232 
G01 X-8.7805 Y11.9107 
G01 X-8.6910 Y12.0863 
G01 X-8.5751 Y12.2457 
G01 X-8.4358 Y12.3851 
G01 X-8.2763 Y12.5010 
G01 X-8.1007 Y12.5905 
G01 X-7.9132 Y12.6514 
G01 X-7.7185 Y12.6822 
G01 X-7.5214 Y12.6822 
G01 X-7.3268 Y12.6514 
G01 X-7.1393 Y12.5905 
G01 X-6.9637 Y12.5010 
G01 X-6.8042 Y12.3851 
G01 X-6.6649 Y12.2457 
G01 X-6.5490 Y12.0863 
G01 X-6.4595 Y11.9107 
G01 X-6.3986 Y11.7232 
G01 X-6.3678 Y11.5285 
G01 X-6.3678 Y9.1470 
G01 X-6.3986 Y8.9524 
G01 X-6.4595 Y8.7649 
G01 X-6.5490 Y8.5893 
G01 X-6.6649 Y8.4298 
G01 X-6.8042 Y8.2905 
G01 X-6.9637 Y8.1746 
G01 X-7.0536 Y8.1288 
G01 X-7.0536 Y7.5454 
G01 X-7.0922 Y7.4014 
G01 X-7.1668 Y7.2722 
G00 Z2.0000 
G00 X-9.7068 Y7.2722 
G01 Z-0.2000 F200.00 
G01 X-12.2468 Y4.7322 F200.00 
G01 X-12.3522 Y4.6268 
G01 X-12.4814 Y4.5522 
G01 X-12.6254 Y4.5136 
G01 X-17.7753 Y4.5136 
G01 X-17.8452 Y4.5124 
G01 X-17.9220 Y4.5317 
G01 X-17.9899 Y4.5487 
G01 X-18.0590 Y4.5871 
G01 X-29.4240 Y10.9010 
G01 X-29.4892 Y10.9372 
G01 X-29.5502 Y10.9711 
G01 X-29.6072 Y11.0262 
G01 X-29.6574 Y11.0748 
G01 X-29.6982 Y11.1427 
G01 X-29.7341 Y11.2027 
G01 X-29.7559 Y11.2788 
G01 X-29.7751 Y11.3461 
G01 X-29.7764 Y11.4253 
G01 X-29.7776 Y11.4952 
G01 X-29.7764 Y11.9388 
G01 X-29.8663 Y11.9846 
G01 X-30.0257 Y12.1005 
G01 X-30.1651 Y12.2398 
G01 X-30.2810 Y12.3993 
G01 X-30.3705 Y12.5749 
G01 X-30.4314 Y12.7624 
G01 X-30.4622 Y12.9570 
G01 X-30.4622 Y15.3385 
G01 X-30.4314 Y15.5332 
G01 X-30.3705 Y15.7207 
G01 X-30.2810 Y15.8963 
G01 X-30.1651 Y16.0557 
G01 X-30.0257 Y16.1951 
G01 X-29.8663 Y16.3110 
G01 X-29.6907 Y16.4005 
G01 X-29.5032 Y16.4614 
G01 X-29.3086 Y16.4922 
G01 X-29.1114 Y16.4922 
G01 X-28.9168 Y16.4614 
G01 X-28.7293 Y16.4005 
G01 X-28.5537 Y16.3110 
G01 X-28.3942 Y16.1951 
G01 X-28.2549 Y16.0557 
G01 X-28.1390 Y15.8963 
G01 X-28.0495 Y15.7207 
G01 X-27.9886 Y15.5332 
G01 X-27.9578 Y15.3385 
G01 X-27.9578 Y12.9570 
G01 X-27.9886 Y12.7624 
G01 X-28.0495 Y12.5749 
G01 X-28.1390 Y12.3993 
G01 X-28.2549 Y12.2398 
G01 X-28.3942 Y12.1005 
G01 X-28.5537 Y11.9846 
G01 X-28.6436 Y11.9388 
G01 X-28.6436 Y11.7633 
G01 X-17.6332 Y5.6464 
G01 X-12.9346 Y5.6464 
G01 X-10.7264 Y7.8546 
G01 X-10.7264 Y8.1288 
G01 X-10.8163 Y8.1746 
G01 X-10.9757 Y8.2905 
G01 X-11.1151 Y8.4298 
G01 X-11.2310 Y8.5893 
G01 X-11.3205 Y8.7649 
G01 X-11.3814 Y8.9524 
G01 X-11.4122 Y9.1470 
G01 X-11.4122 Y11.5285 
G01 X-11.3814 Y11.7232 
G01 X-11.3205 Y11.9107 
G01 X-11.2310 Y12.0863 
G01 X-11.1151 Y12.2457 
G01 X-10.9757 Y12.3851 
G01 X-10.8163 Y12.5010 
G01 X-10.6407 Y12.5905 
G01 X-10.4532 Y12.6514 
G01 X-10.2585 Y12.6822 
G01 X-10.0614 Y12.6822 
G01 X-9.8668 Y12.6514 
G01 X-9.6793 Y12.5905 
G01 X-9.5037 Y12.5010 
G01 X-9.3442 Y12.3851 
G01 X-9.2049 Y12.2457 
G01 X-9.0890 Y12.0863 
G01 X-8.9995 Y11.9107 
G01 X-8.9386 Y11.7232 
G01 X-8.9078 Y11.5285 
G01 X-8.9078 Y9.1470 
G01 X-8.9386 Y8.9524 
G01 X-8.9995 Y8.7649 
G01 X-9.0890 Y8.5893 
G01 X-9.2049 Y8.4298 
G01 X-9.3442 Y8.2905 
G01 X-9.5037 Y8.1746 
G01 X-9.5936 Y8.1288 
G01 X-9.5936 Y7.5454 
G01 X-9.6322 Y7.4014 
G01 X-9.7068 Y7.2722 
G00 Z2.0000 
G00 X-12.2468 Y7.2722 
G01 Z-0.2000 F200.00 
G01 X-13.5168 Y6.0022 F200.00 
G01 X-13.6222 Y5.8968 
G01 X-13.7514 Y5.8222 
G01 X-13.8954 Y5.7836 
G01 X-16.4455 Y5.7836 
G01 X-16.5199 Y5.7836 
G01 X-16.5846 Y5.7836 
G01 X-16.6662 Y5.8055 
G01 X-16.7286 Y5.8222 
G01 X-16.8018 Y5.8644 
G01 X-16.8578 Y5.8968 
G01 X-26.3614 Y11.8392 
G01 X-26.5714 Y11.8034 
G01 X-26.7686 Y11.8034 
G01 X-26.9632 Y11.8342 
G01 X-27.1507 Y11.8951 
G01 X-27.3263 Y11.9846 
G01 X-27.4857 Y12.1005 
G01 X-27.6251 Y12.2398 
G01 X-27.7410 Y12.3993 
G01 X-27.8305 Y12.5749 
G01 X-27.8914 Y12.7624 
G01 X-27.9222 Y12.9570 
G01 X-27.9222 Y15.3385 
G01 X-27.8914 Y15.5332 
G01 X-27.8305 Y15.7207 
G01 X-27.7410 Y15.8963 
G01 X-27.6251 Y16.0557 
G01 X-27.4857 Y16.1951 
G01 X-27.3263 Y16.3110 
G01 X-27.1507 Y16.4005 
G01 X-26.9632 Y16.4614 
G01 X-26.7686 Y16.4922 
G01 X-26.5714 Y16.4922 
G01 X-26.3768 Y16.4614 
G01 X-26.1893 Y16.4005 
G01 X-26.0137 Y16.3110 
G01 X-25.8542 Y16.1951 
G01 X-25.7149 Y16.0557 
G01 X-25.5990 Y15.8963 
G01 X-25.5095 Y15.7207 
G01 X-25.4486 Y15.5332 
G01 X-25.4178 Y15.3385 
G01 X-25.4178 Y12.9570 
G01 X-25.4486 Y12.7624 
G01 X-25.4913 Y12.6312 
G01 X-16.3476 Y6.9164 
G01 X-14.2046 Y6.9164 
G01 X-13.2664 Y7.8546 
G01 X-13.2664 Y8.1288 
G01 X-13.3563 Y8.1746 
G01 X-13.5158 Y8.2905 
G01 X-13.6551 Y8.4298 
G01 X-13.7710 Y8.5893 
G01 X-13.8605 Y8.7649 
G01 X-13.9214 Y8.9524 
G01 X-13.9522 Y9.1470 
G01 X-13.9522 Y11.5285 
G01 X-13.9214 Y11.7232 
G01 X-13.8605 Y11.9107 
G01 X-13.7710 Y12.0863 
G01 X-13.6551 Y12.2457 
G01 X-13.5158 Y12.3851 
G01 X-13.3563 Y12.5010 
G01 X-13.1807 Y12.5905 
G01 X-12.9932 Y12.6514 
G01 X-12.7986 Y12.6822 
G01 X-12.6014 Y12.6822 
G01 X-12.4068 Y12.6514 
G01 X-12.2193 Y12.5905 
G01 X-12.0437 Y12.5010 
G01 X-11.8842 Y12.3851 
G01 X-11.7449 Y12.2457 
G01 X-11.6290 Y12.0863 
G01 X-11.5395 Y11.9107 
G01 X-11.4786 Y11.7232 
G01 X-11.4478 Y11.5285 
G01 X-11.4478 Y9.1470 
G01 X-11.4786 Y8.9524 
G01 X-11.5395 Y8.7649 
G01 X-11.6290 Y8.5893 
G01 X-11.7449 Y8.4298 
G01 X-11.8842 Y8.2905 
G01 X-12.0437 Y8.1746 
G01 X-12.1336 Y8.1288 
G01 X-12.1336 Y7.5454 
G01 X-12.1722 Y7.4014 
G01 X-12.2468 Y7.2722 
G00 Z2.0000 
G00 X-14.2849 Y8.4298 
G01 Z-0.2000 F200.00 
G01 X-14.4242 Y8.2905 F200.00 
G01 X-14.5837 Y8.1746 
G01 X-14.7593 Y8.0851 
G01 X-14.9468 Y8.0242 
G01 X-15.1414 Y7.9934 
G01 X-15.3385 Y7.9934 
G01 X-15.5332 Y8.0242 
G01 X-15.7207 Y8.0851 
G01 X-15.8963 Y8.1746 
G01 X-16.0557 Y8.2905 
G01 X-16.1951 Y8.4298 
G01 X-16.3110 Y8.5893 
G01 X-16.4005 Y8.7649 
G01 X-16.4614 Y8.9524 
G01 X-16.4922 Y9.1470 
G01 X-16.4922 Y11.5285 
G01 X-16.4614 Y11.7232 
G01 X-16.4005 Y11.9107 
G01 X-16.3110 Y12.0863 
G01 X-16.1951 Y12.2457 
G01 X-16.0557 Y12.3851 
G01 X-15.8963 Y12.5010 
G01 X-15.8064 Y12.5468 
G01 X-15.8064 Y13.4036 
G01 X-20.2797 Y13.4036 
G01 X-20.3137 Y13.3987 
G01 X-20.3540 Y13.4036 
G01 X-20.3946 Y13.4036 
G01 X-20.4277 Y13.4125 
G01 X-20.4618 Y13.4166 
G01 X-20.4994 Y13.4317 
G01 X-20.5386 Y13.4422 
G01 X-20.5683 Y13.4594 
G01 X-20.6002 Y13.4721 
G01 X-20.6326 Y13.4965 
G01 X-20.6678 Y13.5168 
G01 X-20.6920 Y13.5410 
G01 X-25.5631 Y17.1943 
G01 X-25.5990 Y17.1237 
G01 X-25.7149 Y16.9642 
G01 X-25.8542 Y16.8249 
G01 X-26.0137 Y16.7090 
G01 X-26.1893 Y16.6195 
G01 X-26.3768 Y16.5586 
G01 X-26.5714 Y16.5278 
G01 X-26.7686 Y16.5278 
G01 X-26.9632 Y16.5586 
G01 X-27.1507 Y16.6195 
G01 X-27.3263 Y16.7090 
G01 X-27.4857 Y16.8249 
G01 X-27.6251 Y16.9642 
G01 X-27.7410 Y17.1237 
G01 X-27.8305 Y17.2993 
G01 X-27.8914 Y17.4868 
G01 X-27.9222 Y17.6814 
G01 X-27.9222 Y20.0630 
G01 X-27.8914 Y20.2576 
G01 X-27.8305 Y20.4451 
G01 X-27.7410 Y20.6207 
G01 X-27.6251 Y20.7801 
G01 X-27.4857 Y20.9195 
G01 X-27.3263 Y21.0354 
G01 X-27.1507 Y21.1249 
G01 X-26.9632 Y21.1858 
G01 X-26.7686 Y21.2166 
G01 X-26.5714 Y21.2166 
G01 X-26.3768 Y21.1858 
G01 X-26.1893 Y21.1249 
G01 X-26.0137 Y21.0354 
G01 X-25.8542 Y20.9195 
G01 X-25.7149 Y20.7801 
G01 X-25.5990 Y20.6207 
G01 X-25.5095 Y20.4451 
G01 X-25.4486 Y20.2576 
G01 X-25.4178 Y20.0630 
G01 X-25.4178 Y18.3496 
G01 X-25.3660 Y18.3464 
G01 X-25.3254 Y18.3464 
G01 X-25.2923 Y18.3375 
G01 X-25.2582 Y18.3334 
G01 X-25.2206 Y18.3183 
G01 X-25.1814 Y18.3078 
G01 X-25.1517 Y18.2906 
G01 X-25.1198 Y18.2779 
G01 X-25.0874 Y18.2535 
G01 X-25.0522 Y18.2332 
G01 X-25.0280 Y18.2090 
G01 X-20.1312 Y14.5364 
G01 X-15.1654 Y14.5364 
G01 X-15.0214 Y14.4978 
G01 X-14.8922 Y14.4232 
G01 X-14.7868 Y14.3178 
G01 X-14.7122 Y14.1886 
G01 X-14.6736 Y14.0446 
G01 X-14.6736 Y12.5468 
G01 X-14.5837 Y12.5010 
G01 X-14.4242 Y12.3851 
G01 X-14.2849 Y12.2457 
G01 X-14.1690 Y12.0863 
G01 X-14.0795 Y11.9107 
G01 X-14.0186 Y11.7232 
G01 X-13.9878 Y11.5285 
G01 X-13.9878 Y9.1470 
G01 X-14.0186 Y8.9524 
G01 X-14.0795 Y8.7649 
G01 X-14.1690 Y8.5893 
G01 X-14.2849 Y8.4298 
G00 Z2.0000 
G00 X-12.6254 Y18.4836 
G01 Z-0.2000 F200.00 
G01 X-17.8546 Y18.4836 F200.00 
G01 X-17.9986 Y18.5222 
G01 X-18.1278 Y18.5968 
G01 X-23.0946 Y23.5636 
G01 X-30.1299 Y23.5636 
G01 X-31.1836 Y21.4563 
G01 X-31.1836 Y21.0812 
G01 X-31.0937 Y21.0354 
G01 X-30.9342 Y20.9195 
G01 X-30.7949 Y20.7801 
G01 X-30.6790 Y20.6207 
G01 X-30.5895 Y20.4451 
G01 X-30.5286 Y20.2576 
G01 X-30.4978 Y20.0630 
G01 X-30.4978 Y17.6814 
G01 X-30.5286 Y17.4868 
G01 X-30.5895 Y17.2993 
G01 X-30.6790 Y17.1237 
G01 X-30.7949 Y16.9642 
G01 X-30.9342 Y16.8249 
G01 X-31.0937 Y16.7090 
G01 X-31.2693 Y16.6195 
G01 X-31.4568 Y16.5586 
G01 X-31.6514 Y16.5278 
G01 X-31.8485 Y16.5278 
G01 X-32.0432 Y16.5586 
G01 X-32.2307 Y16.6195 
G01 X-32.4063 Y16.7090 
G01 X-32.5658 Y16.8249 
G01 X-32.7051 Y16.9642 
G01 X-32.8210 Y17.1237 
G01 X-32.9105 Y17.2993 
G01 X-32.9714 Y17.4868 
G01 X-33.0022 Y17.6814 
G01 X-33.0022 Y20.0630 
G01 X-32.9714 Y20.2576 
G01 X-32.9105 Y20.4451 
G01 X-32.8210 Y20.6207 
G01 X-32.7051 Y20.7801 
G01 X-32.5658 Y20.9195 
G01 X-32.4063 Y21.0354 
G01 X-32.3164 Y21.0812 
G01 X-32.3164 Y21.5730 
G01 X-32.3198 Y21.6305 
G01 X-32.3164 Y21.6646 
G01 X-32.3015 Y21.7202 
G01 X-32.2899 Y21.7766 
G01 X-32.2778 Y21.8086 
G01 X-32.2490 Y21.8585 
G01 X-31.0123 Y24.3320 
G01 X-30.9790 Y24.3985 
G01 X-30.9533 Y24.4500 
G01 X-30.9332 Y24.4778 
G01 X-30.8925 Y24.5185 
G01 X-30.8543 Y24.5616 
G01 X-30.8278 Y24.5832 
G01 X-30.7779 Y24.6120 
G01 X-30.7298 Y24.6438 
G01 X-30.6986 Y24.6578 
G01 X-30.6430 Y24.6727 
G01 X-30.5884 Y24.6909 
G01 X-30.5546 Y24.6964 
G01 X-30.4970 Y24.6964 
G01 X-30.4395 Y24.6998 
G01 X-22.7854 Y24.6964 
G01 X-22.6414 Y24.6578 
G01 X-22.5122 Y24.5832 
G01 X-22.4068 Y24.4778 
G01 X-17.5454 Y19.6164 
G01 X-13.2664 Y19.6164 
G01 X-13.2664 Y20.4732 
G01 X-13.3563 Y20.5190 
G01 X-13.5158 Y20.6349 
G01 X-13.6551 Y20.7742 
G01 X-13.7710 Y20.9337 
G01 X-13.8605 Y21.1093 
G01 X-13.9214 Y21.2968 
G01 X-13.9522 Y21.4914 
G01 X-13.9522 Y23.8729 
G01 X-13.9214 Y24.0676 
G01 X-13.8605 Y24.2551 
G01 X-13.7710 Y24.4307 
G01 X-13.6551 Y24.5902 
G01 X-13.5158 Y24.7295 
G01 X-13.3563 Y24.8454 
G01 X-13.1807 Y24.9349 
G01 X-12.9932 Y24.9958 
G01 X-12.7986 Y25.0266 
G01 X-12.6014 Y25.0266 
G01 X-12.4068 Y24.9958 
G01 X-12.2193 Y24.9349 
G01 X-12.0437 Y24.8454 
G01 X-11.8842 Y24.7295 
G01 X-11.7449 Y24.5902 
G01 X-11.6290 Y24.4307 
G01 X-11.5395 Y24.2551 
G01 X-11.4786 Y24.0676 
G01 X-11.4478 Y23.8729 
G01 X-11.4478 Y21.4914 
G01 X-11.4786 Y21.2968 
G01 X-11.5395 Y21.1093 
G01 X-11.6290 Y20.9337 
G01 X-11.7449 Y20.7742 
G01 X-11.8842 Y20.6349 
G01 X-12.0437 Y20.5190 
G01 X-12.1336 Y20.4732 
G01 X-12.1336 Y18.9754 
G01 X-12.1722 Y18.8314 
G01 X-12.2468 Y18.7022 
G01 X-12.3522 Y18.5968 
G01 X-12.4814 Y18.5222 
G01 X-12.6254 Y18.4836 
G00 Z2.0000 
G00 X-10.9757 Y20.6349 
G01 Z-0.2000 F200.00 
G01 X-11.1151 Y20.7742 F200.00 
G01 X-11.2310 Y20.9337 
G01 X-11.3205 Y21.1093 
G01 X-11.3814 Y21.2968 
G01 X-11.4122 Y21.4914 
G01 X-11.4122 Y23.8729 
G01 X-11.3814 Y24.0676 
G01 X-11.3205 Y24.2551 
G01 X-11.2310 Y24.4307 
G01 X-11.1151 Y24.5902 
G01 X-10.9757 Y24.7295 
G01 X-10.8163 Y24.8454 
G01 X-10.7264 Y24.8912 
G01 X-10.7264 Y25.1654 
G01 X-11.6646 Y26.1036 
G01 X-33.9399 Y26.1036 
G01 X-36.2636 Y21.4563 
G01 X-36.2636 Y21.0812 
G01 X-36.1737 Y21.0354 
G01 X-36.0142 Y20.9195 
G01 X-35.8749 Y20.7801 
G01 X-35.7590 Y20.6207 
G01 X-35.6695 Y20.4451 
G01 X-35.6086 Y20.2576 
G01 X-35.5778 Y20.0630 
G01 X-35.5778 Y17.6814 
G01 X-35.6086 Y17.4868 
G01 X-35.6695 Y17.2993 
G01 X-35.7590 Y17.1237 
G01 X-35.8749 Y16.9642 
G01 X-36.0142 Y16.8249 
G01 X-36.1737 Y16.7090 
G01 X-36.3493 Y16.6195 
G01 X-36.5368 Y16.5586 
G01 X-36.7314 Y16.5278 
G01 X-36.9286 Y16.5278 
G01 X-37.1232 Y16.5586 
G01 X-37.3107 Y16.6195 
G01 X-37.4863 Y16.7090 
G01 X-37.6457 Y16.8249 
G01 X-37.7851 Y16.9642 
G01 X-37.9010 Y17.1237 
G01 X-37.9905 Y17.2993 
G01 X-38.0514 Y17.4868 
G01 X-38.0822 Y17.6814 
G01 X-38.0822 Y20.0630 
G01 X-38.0514 Y20.2576 
G01 X-37.9905 Y20.4451 
G01 X-37.9010 Y20.6207 
G01 X-37.7851 Y20.7801 
G01 X-37.6457 Y20.9195 
G01 X-37.4863 Y21.0354 
G01 X-37.3964 Y21.0812 
G01 X-37.3964 Y21.5730 
G01 X-37.3998 Y21.6305 
G01 X-37.3964 Y21.6646 
G01 X-37.3815 Y21.7202 
G01 X-37.3699 Y21.7766 
G01 X-37.3578 Y21.8086 
G01 X-37.3290 Y21.8585 
G01 X-34.8222 Y26.8720 
G01 X-34.7890 Y26.9385 
G01 X-34.7633 Y26.9900 
G01 X-34.7432 Y27.0178 
G01 X-34.7025 Y27.0585 
G01 X-34.6643 Y27.1016 
G01 X-34.6378 Y27.1232 
G01 X-34.5879 Y27.1520 
G01 X-34.5399 Y27.1837 
G01 X-34.5086 Y27.1978 
G01 X-34.4530 Y27.2127 
G01 X-34.3984 Y27.2309 
G01 X-34.3646 Y27.2364 
G01 X-34.3070 Y27.2364 
G01 X-34.2495 Y27.2398 
G01 X-11.3554 Y27.2364 
G01 X-11.2114 Y27.1978 
G01 X-11.0822 Y27.1232 
G01 X-10.9768 Y27.0178 
G01 X-9.7068 Y25.7478 
G01 X-9.6322 Y25.6186 
G01 X-9.5936 Y25.4746 
G01 X-9.5936 Y24.8912 
G01 X-9.5037 Y24.8454 
G01 X-9.3442 Y24.7295 
G01 X-9.2049 Y24.5902 
G01 X-9.0890 Y24.4307 
G01 X-8.9995 Y24.2551 
G01 X-8.9386 Y24.0676 
G01 X-8.9078 Y23.8729 
G01 X-8.9078 Y21.4914 
G01 X-8.9386 Y21.2968 
G01 X-8.9995 Y21.1093 
G01 X-9.0890 Y20.9337 
G01 X-9.2049 Y20.7742 
G01 X-9.3442 Y20.6349 
G01 X-9.5037 Y20.5190 
G01 X-9.6793 Y20.4295 
G01 X-9.8668 Y20.3686 
G01 X-10.0614 Y20.3378 
G01 X-10.2585 Y20.3378 
G01 X-10.4532 Y20.3686 
G01 X-10.6407 Y20.4295 
G01 X-10.8163 Y20.5190 
G01 X-10.9757 Y20.6349 
G00 Z2.0000 
G00 X-8.4358 Y20.6349 
G01 Z-0.2000 F200.00 
G01 X-8.5751 Y20.7742 F200.00 
G01 X-8.6910 Y20.9337 
G01 X-8.7805 Y21.1093 
G01 X-8.8414 Y21.2968 
G01 X-8.8722 Y21.4914 
G01 X-8.8722 Y23.8729 
G01 X-8.8414 Y24.0676 
G01 X-8.7805 Y24.2551 
G01 X-8.6910 Y24.4307 
G01 X-8.5751 Y24.5902 
G01 X-8.4358 Y24.7295 
G01 X-8.2763 Y24.8454 
G01 X-8.1864 Y24.8912 
G01 X-8.1864 Y25.1654 
G01 X-10.3946 Y27.3736 
G01 X-36.4465 Y27.3736 
G01 X-38.8036 Y21.4809 
G01 X-38.8036 Y21.0812 
G01 X-38.7137 Y21.0354 
G01 X-38.5542 Y20.9195 
G01 X-38.4149 Y20.7801 
G01 X-38.2990 Y20.6207 
G01 X-38.2095 Y20.4451 
G01 X-38.1486 Y20.2576 
G01 X-38.1178 Y20.0630 
G01 X-38.1178 Y17.6814 
G01 X-38.1486 Y17.4868 
G01 X-38.2095 Y17.2993 
G01 X-38.2990 Y17.1237 
G01 X-38.4149 Y16.9642 
G01 X-38.5542 Y16.8249 
G01 X-38.7137 Y16.7090 
G01 X-38.8893 Y16.6195 
G01 X-39.0768 Y16.5586 
G01 X-39.2714 Y16.5278 
G01 X-39.4686 Y16.5278 
G01 X-39.6632 Y16.5586 
G01 X-39.8507 Y16.6195 
G01 X-40.0263 Y16.7090 
G01 X-40.1857 Y16.8249 
G01 X-40.3251 Y16.9642 
G01 X-40.4410 Y17.1237 
G01 X-40.5305 Y17.2993 
G01 X-40.5914 Y17.4868 
G01 X-40.6222 Y17.6814 
G01 X-40.6222 Y20.0630 
G01 X-40.5914 Y20.2576 
G01 X-40.5305 Y20.4451 
G01 X-40.4410 Y20.6207 
G01 X-40.3251 Y20.7801 
G01 X-40.1857 Y20.9195 
G01 X-40.0263 Y21.0354 
G01 X-39.9364 Y21.0812 
G01 X-39.9364 Y21.5494 
G01 X-39.9412 Y21.5830 
G01 X-39.9364 Y21.6237 
G01 X-39.9364 Y21.6646 
G01 X-39.9276 Y21.6974 
G01 X-39.9236 Y21.7311 
G01 X-39.9084 Y21.7691 
G01 X-39.8978 Y21.8086 
G01 X-39.8808 Y21.8380 
G01 X-37.3684 Y28.1191 
G01 X-37.3578 Y28.1586 
G01 X-37.3408 Y28.1880 
G01 X-37.3282 Y28.2196 
G01 X-37.3037 Y28.2523 
G01 X-37.2832 Y28.2878 
G01 X-37.2592 Y28.3118 
G01 X-37.2389 Y28.3390 
G01 X-37.2067 Y28.3643 
G01 X-37.1778 Y28.3932 
G01 X-37.1484 Y28.4102 
G01 X-37.1217 Y28.4312 
G01 X-37.0840 Y28.4473 
G01 X-37.0486 Y28.4678 
G01 X-37.0158 Y28.4766 
G01 X-36.9846 Y28.4900 
G01 X-36.9441 Y28.4958 
G01 X-36.9046 Y28.5064 
G01 X-36.8706 Y28.5064 
G01 X-36.8370 Y28.5112 
G01 X-36.7963 Y28.5064 
G01 X-10.0854 Y28.5064 
G01 X-9.9414 Y28.4678 
G01 X-9.8122 Y28.3932 
G01 X-9.7068 Y28.2878 
G01 X-7.1668 Y25.7478 
G01 X-7.0922 Y25.6186 
G01 X-7.0536 Y25.4746 
G01 X-7.0536 Y24.8912 
G01 X-6.9637 Y24.8454 
G01 X-6.8042 Y24.7295 
G01 X-6.6649 Y24.5902 
G01 X-6.5490 Y24.4307 
G01 X-6.4595 Y24.2551 
G01 X-6.3986 Y24.0676 
G01 X-6.3678 Y23.8729 
G01 X-6.3678 Y21.4914 
G01 X-6.3986 Y21.2968 
G01 X-6.4595 Y21.1093 
G01 X-6.5490 Y20.9337 
G01 X-6.6649 Y20.7742 
G01 X-6.8042 Y20.6349 
G01 X-6.9637 Y20.5190 
G01 X-7.1393 Y20.4295 
G01 X-7.3268 Y20.3686 
G01 X-7.5214 Y20.3378 
G01 X-7.7185 Y20.3378 
G01 X-7.9132 Y20.3686 
G01 X-8.1007 Y20.4295 
G01 X-8.2763 Y20.5190 
G01 X-8.4358 Y20.6349 
G00 Z2.0000 
G00 X-5.8957 Y20.6349 
G01 Z-0.2000 F200.00 
G01 X-6.0351 Y20.7742 F200.00 
G01 X-6.1510 Y20.9337 
G01 X-6.2405 Y21.1093 
G01 X-6.3014 Y21.2968 
G01 X-6.3322 Y21.4914 
G01 X-6.3322 Y23.8729 
G01 X-6.3014 Y24.0676 
G01 X-6.2405 Y24.2551 
G01 X-6.1510 Y24.4307 
G01 X-6.0351 Y24.5902 
G01 X-5.8957 Y24.7295 
G01 X-5.7363 Y24.8454 
G01 X-5.6464 Y24.8912 
G01 X-5.6464 Y25.1654 
G01 X-9.1246 Y28.6436 
G01 X-37.8905 Y28.6436 
G01 X-46.4236 Y21.3295 
G01 X-46.4236 Y12.9346 
G01 X-44.2154 Y10.7264 
G01 X-40.8746 Y10.7264 
G01 X-39.9364 Y11.6646 
G01 X-39.9364 Y11.9388 
G01 X-40.0263 Y11.9846 
G01 X-40.1857 Y12.1005 
G01 X-40.3251 Y12.2398 
G01 X-40.4410 Y12.3993 
G01 X-40.5305 Y12.5749 
G01 X-40.5914 Y12.7624 
G01 X-40.6222 Y12.9570 
G01 X-40.6222 Y15.3385 
G01 X-40.5914 Y15.5332 
G01 X-40.5305 Y15.7207 
G01 X-40.4410 Y15.8963 
G01 X-40.3251 Y16.0557 
G01 X-40.1857 Y16.1951 
G01 X-40.0263 Y16.3110 
G01 X-39.8507 Y16.4005 
G01 X-39.6632 Y16.4614 
G01 X-39.4686 Y16.4922 
G01 X-39.2714 Y16.4922 
G01 X-39.0768 Y16.4614 
G01 X-38.8893 Y16.4005 
G01 X-38.7137 Y16.3110 
G01 X-38.5542 Y16.1951 
G01 X-38.4149 Y16.0557 
G01 X-38.2990 Y15.8963 
G01 X-38.2095 Y15.7207 
G01 X-38.1486 Y15.5332 
G01 X-38.1178 Y15.3385 
G01 X-38.1178 Y12.9570 
G01 X-38.1486 Y12.7624 
G01 X-38.2095 Y12.5749 
G01 X-38.2990 Y12.3993 
G01 X-38.4149 Y12.2398 
G01 X-38.5542 Y12.1005 
G01 X-38.7137 Y11.9846 
G01 X-38.8036 Y11.9388 
G01 X-38.8036 Y11.3554 
G01 X-38.8422 Y11.2114 
G01 X-38.9168 Y11.0822 
G01 X-39.0222 Y10.9768 
G01 X-40.2922 Y9.7068 
G01 X-40.4214 Y9.6322 
G01 X-40.5654 Y9.5936 
G01 X-44.5246 Y9.5936 
G01 X-44.6686 Y9.6322 
G01 X-44.7978 Y9.7068 
G01 X-44.9032 Y9.8122 
G01 X-47.4432 Y12.3522 
G01 X-47.5178 Y12.4814 
G01 X-47.5564 Y12.6254 
G01 X-47.5564 Y21.5375 
G01 X-47.5604 Y21.5591 
G01 X-47.5564 Y21.6117 
G01 X-47.5564 Y21.6646 
G01 X-47.5507 Y21.6858 
G01 X-47.5490 Y21.7078 
G01 X-47.5315 Y21.7576 
G01 X-47.5178 Y21.8086 
G01 X-47.4995 Y21.8485 
G01 X-47.4696 Y21.8920 
G01 X-47.4432 Y21.9378 
G01 X-47.4152 Y21.9715 
G01 X-47.3751 Y22.0059 
G01 X-47.3378 Y22.0432 
G01 X-38.4851 Y29.6259 
G01 X-38.4478 Y29.6632 
G01 X-38.4120 Y29.6886 
G01 X-38.3644 Y29.7114 
G01 X-38.3186 Y29.7378 
G01 X-38.2974 Y29.7435 
G01 X-38.2256 Y29.7627 
G01 X-38.1746 Y29.7764 
G01 X-38.1525 Y29.7764 
G01 X-38.1309 Y29.7804 
G01 X-38.0783 Y29.7764 
G01 X-8.8154 Y29.7764 
G01 X-8.6714 Y29.7378 
G01 X-8.5422 Y29.6632 
G01 X-8.4368 Y29.5578 
G01 X-4.6268 Y25.7478 
G01 X-4.5522 Y25.6186 
G01 X-4.5136 Y25.4746 
G01 X-4.5136 Y24.8912 
G01 X-4.4237 Y24.8454 
G01 X-4.2642 Y24.7295 
G01 X-4.1249 Y24.5902 
G01 X-4.0090 Y24.4307 
G01 X-3.9195 Y24.2551 
G01 X-3.8586 Y24.0676 
G01 X-3.8278 Y23.8729 
G01 X-3.8278 Y21.4914 
G01 X-3.8586 Y21.2968 
G01 X-3.9195 Y21.1093 
G01 X-4.0090 Y20.9337 
G01 X-4.1249 Y20.7742 
G01 X-4.2642 Y20.6349 
G01 X-4.4237 Y20.5190 
G01 X-4.5993 Y20.4295 
G01 X-4.7868 Y20.3686 
G01 X-4.9814 Y20.3378 
G01 X-5.1786 Y20.3378 
G01 X-5.3732 Y20.3686 
G01 X-5.5607 Y20.4295 
G01 X-5.7363 Y20.5190 
G01 X-5.8957 Y20.6349 
G00 Z2.0000 
G00 X-3.5461 Y20.8444 
G01 Z-0.2000 F200.00 
G01 X-3.6110 Y20.9337 F200.00 
G01 X-3.7005 Y21.1093 
G01 X-3.7614 Y21.2968 
G01 X-3.7922 Y21.4914 
G01 X-3.7922 Y23.8729 
G01 X-3.7614 Y24.0676 
G01 X-3.7005 Y24.2551 
G01 X-3.6110 Y24.4307 
G01 X-3.4951 Y24.5902 
G01 X-3.3558 Y24.7295 
G01 X-3.1963 Y24.8454 
G01 X-3.0207 Y24.9349 
G01 X-2.8332 Y24.9958 
G01 X-2.6385 Y25.0266 
G01 X-2.4414 Y25.0266 
G01 X-2.2468 Y24.9958 
G01 X-2.0593 Y24.9349 
G01 X-1.8837 Y24.8454 
G01 X-1.7242 Y24.7295 
G01 X-1.5849 Y24.5902 
G01 X-1.4690 Y24.4307 
G01 X-1.3795 Y24.2551 
G01 X-1.3186 Y24.0676 
G01 X-1.2878 Y23.8729 
G01 X-1.2878 Y21.4914 
G01 X-1.3186 Y21.2968 
G01 X-1.3795 Y21.1093 
G01 X-1.4690 Y20.9337 
G01 X-1.5849 Y20.7742 
G01 X-1.7242 Y20.6349 
G01 X-1.8837 Y20.5190 
G01 X-2.0593 Y20.4295 
G01 X-2.2468 Y20.3686 
G01 X-2.4414 Y20.3378 
G01 X-2.5328 Y20.3378 
G01 X-4.5477 Y16.3080 
G01 X-4.5810 Y16.2415 
G01 X-4.6067 Y16.1900 
G01 X-4.6268 Y16.1622 
G01 X-4.6675 Y16.1215 
G01 X-4.7057 Y16.0784 
G01 X-4.7322 Y16.0568 
G01 X-4.7821 Y16.0280 
G01 X-4.8301 Y15.9962 
G01 X-4.8614 Y15.9822 
G01 X-4.9170 Y15.9673 
G01 X-4.9716 Y15.9491 
G01 X-5.0054 Y15.9436 
G01 X-5.0630 Y15.9436 
G01 X-5.1205 Y15.9401 
G01 X-19.1246 Y15.9436 
G01 X-19.2686 Y15.9822 
G01 X-19.3978 Y16.0568 
G01 X-25.6346 Y22.2936 
G01 X-28.6436 Y22.2936 
G01 X-28.6436 Y21.0812 
G01 X-28.5537 Y21.0354 
G01 X-28.3942 Y20.9195 
G01 X-28.2549 Y20.7801 
G01 X-28.1390 Y20.6207 
G01 X-28.0495 Y20.4451 
G01 X-27.9886 Y20.2576 
G01 X-27.9578 Y20.0630 
G01 X-27.9578 Y17.6814 
G01 X-27.9886 Y17.4868 
G01 X-28.0495 Y17.2993 
G01 X-28.1390 Y17.1237 
G01 X-28.2549 Y16.9642 
G01 X-28.3942 Y16.8249 
G01 X-28.5537 Y16.7090 
G01 X-28.7293 Y16.6195 
G01 X-28.9168 Y16.5586 
G01 X-29.1114 Y16.5278 
G01 X-29.3086 Y16.5278 
G01 X-29.5032 Y16.5586 
G01 X-29.6907 Y16.6195 
G01 X-29.8663 Y16.7090 
G01 X-30.0257 Y16.8249 
G01 X-30.1651 Y16.9642 
G01 X-30.2810 Y17.1237 
G01 X-30.3705 Y17.2993 
G01 X-30.4314 Y17.4868 
G01 X-30.4622 Y17.6814 
G01 X-30.4622 Y20.0630 
G01 X-30.4314 Y20.2576 
G01 X-30.3705 Y20.4451 
G01 X-30.2810 Y20.6207 
G01 X-30.1651 Y20.7801 
G01 X-30.0257 Y20.9195 
G01 X-29.8663 Y21.0354 
G01 X-29.7764 Y21.0812 
G01 X-29.7764 Y22.9346 
G01 X-29.7378 Y23.0786 
G01 X-29.6632 Y23.2078 
G01 X-29.5578 Y23.3132 
G01 X-29.4286 Y23.3878 
G01 X-29.2846 Y23.4264 
G01 X-25.3254 Y23.4264 
G01 X-25.1814 Y23.3878 
G01 X-25.0522 Y23.3132 
G01 X-24.9468 Y23.2078 
G01 X-18.8154 Y17.0764 
G01 X-5.4300 Y17.0764 
G01 X-3.5461 Y20.8444 
G00 Z2.0000 
G00 X-14.1690 Y20.9337 
G01 Z-0.2000 F200.00 
G01 X-14.2849 Y20.7742 F200.00 
G01 X-14.4242 Y20.6349 
G01 X-14.5837 Y20.5190 
G01 X-14.7593 Y20.4295 
G01 X-14.9468 Y20.3686 
G01 X-15.1414 Y20.3378 
G01 X-15.3385 Y20.3378 
G01 X-15.5332 Y20.3686 
G01 X-15.7207 Y20.4295 
G01 X-15.8963 Y20.5190 
G01 X-16.0557 Y20.6349 
G01 X-16.1951 Y20.7742 
G01 X-16.3110 Y20.9337 
G01 X-16.4005 Y21.1093 
G01 X-16.4614 Y21.2968 
G01 X-16.4922 Y21.4914 
G01 X-16.4922 Y23.8729 
G01 X-16.4614 Y24.0676 
G01 X-16.4005 Y24.2551 
G01 X-16.3110 Y24.4307 
G01 X-16.1951 Y24.5902 
G01 X-16.0557 Y24.7295 
G01 X-15.9125 Y24.8336 
G01 X-31.4469 Y24.8336 
G01 X-33.7236 Y21.4185 
G01 X-33.7236 Y21.0812 
G01 X-33.6337 Y21.0354 
G01 X-33.4742 Y20.9195 
G01 X-33.3349 Y20.7801 
G01 X-33.2190 Y20.6207 
G01 X-33.1295 Y20.4451 
G01 X-33.0686 Y20.2576 
G01 X-33.0378 Y20.0630 
G01 X-33.0378 Y17.6814 
G01 X-33.0686 Y17.4868 
G01 X-33.1295 Y17.2993 
G01 X-33.2190 Y17.1237 
G01 X-33.3349 Y16.9642 
G01 X-33.4742 Y16.8249 
G01 X-33.6337 Y16.7090 
G01 X-33.8093 Y16.6195 
G01 X-33.9968 Y16.5586 
G01 X-34.1914 Y16.5278 
G01 X-34.3886 Y16.5278 
G01 X-34.5832 Y16.5586 
G01 X-34.7707 Y16.6195 
G01 X-34.9463 Y16.7090 
G01 X-35.1058 Y16.8249 
G01 X-35.2451 Y16.9642 
G01 X-35.3610 Y17.1237 
G01 X-35.4505 Y17.2993 
G01 X-35.5114 Y17.4868 
G01 X-35.5422 Y17.6814 
G01 X-35.5422 Y20.0630 
G01 X-35.5114 Y20.2576 
G01 X-35.4505 Y20.4451 
G01 X-35.3610 Y20.6207 
G01 X-35.2451 Y20.7801 
G01 X-35.1058 Y20.9195 
G01 X-34.9463 Y21.0354 
G01 X-34.8564 Y21.0812 
G01 X-34.8564 Y21.5339 
G01 X-34.8564 Y21.6083 
G01 X-34.8564 Y21.6646 
G01 X-34.8504 Y21.7009 
G01 X-34.8324 Y21.7542 
G01 X-34.8178 Y21.8086 
G01 X-34.8026 Y21.8421 
G01 X-34.7714 Y21.8890 
G01 X-34.7432 Y21.9378 
G01 X-32.2314 Y25.6990 
G01 X-32.2032 Y25.7478 
G01 X-32.1799 Y25.7762 
G01 X-32.1376 Y25.8134 
G01 X-32.0978 Y25.8532 
G01 X-32.0679 Y25.8747 
G01 X-32.0174 Y25.8996 
G01 X-31.9686 Y25.9278 
G01 X-31.9342 Y25.9408 
G01 X-31.8790 Y25.9518 
G01 X-31.8246 Y25.9664 
G01 X-31.7880 Y25.9700 
G01 X-31.7317 Y25.9664 
G01 X-15.1654 Y25.9664 
G01 X-15.0214 Y25.9278 
G01 X-14.8922 Y25.8532 
G01 X-14.7868 Y25.7478 
G01 X-14.7122 Y25.6186 
G01 X-14.6736 Y25.4746 
G01 X-14.6736 Y24.8912 
G01 X-14.5837 Y24.8454 
G01 X-14.4242 Y24.7295 
G01 X-14.2849 Y24.5902 
G01 X-14.1690 Y24.4307 
G01 X-14.0795 Y24.2551 
G01 X-14.0186 Y24.0676 
G01 X-13.9878 Y23.8729 
G01 X-13.9878 Y21.4914 
G01 X-14.0186 Y21.2968 
G01 X-14.0795 Y21.1093 
G01 X-14.1690 Y20.9337 
G00 Z2.0000 
G00 X-41.0942 Y20.9195 
G01 Z-0.2000 F200.00 
G01 X-40.9549 Y20.7801 F200.00 
G01 X-40.8390 Y20.6207 
G01 X-40.7495 Y20.4451 
G01 X-40.6886 Y20.2576 
G01 X-40.6578 Y20.0630 
G01 X-40.6578 Y17.6814 
G01 X-40.6886 Y17.4868 
G01 X-40.7495 Y17.2993 
G01 X-40.8390 Y17.1237 
G01 X-40.9549 Y16.9642 
G01 X-41.0942 Y16.8249 
G01 X-41.2537 Y16.7090 
G01 X-41.4293 Y16.6195 
G01 X-41.6168 Y16.5586 
G01 X-41.8114 Y16.5278 
G01 X-42.0085 Y16.5278 
G01 X-42.2032 Y16.5586 
G01 X-42.3907 Y16.6195 
G01 X-42.5663 Y16.7090 
G01 X-42.7257 Y16.8249 
G01 X-42.8651 Y16.9642 
G01 X-42.9810 Y17.1237 
G01 X-43.0705 Y17.2993 
G01 X-43.1314 Y17.4868 
G01 X-43.1622 Y17.6814 
G01 X-43.1622 Y20.0630 
G01 X-43.1314 Y20.2576 
G01 X-43.0705 Y20.4451 
G01 X-42.9810 Y20.6207 
G01 X-42.8651 Y20.7801 
G01 X-42.7257 Y20.9195 
G01 X-42.5663 Y21.0354 
G01 X-42.3907 Y21.1249 
G01 X-42.2032 Y21.1858 
G01 X-42.0085 Y21.2166 
G01 X-41.8114 Y21.2166 
G01 X-41.6168 Y21.1858 
G01 X-41.4293 Y21.1249 
G01 X-41.2537 Y21.0354 
G01 X-41.0942 Y20.9195 
G00 Z2.0000 
G00 X-43.6342 Y20.9195 
G01 Z-0.2000 F200.00 
G01 X-43.4949 Y20.7801 F200.00 
G01 X-43.3790 Y20.6207 
G01 X-43.2895 Y20.4451 
G01 X-43.2286 Y20.2576 
G01 X-43.1978 Y20.0630 
G01 X-43.1978 Y17.6814 
G01 X-43.2286 Y17.4868 
G01 X-43.2895 Y17.2993 
G01 X-43.3790 Y17.1237 
G01 X-43.4949 Y16.9642 
G01 X-43.6342 Y16.8249 
G01 X-43.7937 Y16.7090 
G01 X-43.9693 Y16.6195 
G01 X-44.1568 Y16.5586 
G01 X-44.3514 Y16.5278 
G01 X-44.5485 Y16.5278 
G01 X-44.7432 Y16.5586 
G01 X-44.9307 Y16.6195 
G01 X-45.1063 Y16.7090 
G01 X-45.2657 Y16.8249 
G01 X-45.4051 Y16.9642 
G01 X-45.5210 Y17.1237 
G01 X-45.6105 Y17.2993 
G01 X-45.6714 Y17.4868 
G01 X-45.7022 Y17.6814 
G01 X-45.7022 Y20.0630 
G01 X-45.6714 Y20.2576 
G01 X-45.6105 Y20.4451 
G01 X-45.5210 Y20.6207 
G01 X-45.4051 Y20.7801 
G01 X-45.2657 Y20.9195 
G01 X-45.1063 Y21.0354 
G01 X-44.9307 Y21.1249 
G01 X-44.7432 Y21.1858 
G01 X-44.5485 Y21.2166 
G01 X-44.3514 Y21.2166 
G01 X-44.1568 Y21.1858 
G01 X-43.9693 Y21.1249 
G01 X-43.7937 Y21.0354 
G01 X-43.6342 Y20.9195 
G00 Z2.0000 
G00 X-43.6342 Y16.1951 
G01 Z-0.2000 F200.00 
G01 X-43.4949 Y16.0557 F200.00 
G01 X-43.3790 Y15.8963 
G01 X-43.2895 Y15.7207 
G01 X-43.2286 Y15.5332 
G01 X-43.1978 Y15.3385 
G01 X-43.1978 Y12.9570 
G01 X-43.2286 Y12.7624 
G01 X-43.2895 Y12.5749 
G01 X-43.3790 Y12.3993 
G01 X-43.4949 Y12.2398 
G01 X-43.6342 Y12.1005 
G01 X-43.7937 Y11.9846 
G01 X-43.9693 Y11.8951 
G01 X-44.1568 Y11.8342 
G01 X-44.3514 Y11.8034 
G01 X-44.5485 Y11.8034 
G01 X-44.7432 Y11.8342 
G01 X-44.9307 Y11.8951 
G01 X-45.1063 Y11.9846 
G01 X-45.2657 Y12.1005 
G01 X-45.4051 Y12.2398 
G01 X-45.5210 Y12.3993 
G01 X-45.6105 Y12.5749 
G01 X-45.6714 Y12.7624 
G01 X-45.7022 Y12.9570 
G01 X-45.7022 Y15.3385 
G01 X-45.6714 Y15.5332 
G01 X-45.6105 Y15.7207 
G01 X-45.5210 Y15.8963 
G01 X-45.4051 Y16.0557 
G01 X-45.2657 Y16.1951 
G01 X-45.1063 Y16.3110 
G01 X-44.9307 Y16.4005 
G01 X-44.7432 Y16.4614 
G01 X-44.5485 Y16.4922 
G01 X-44.3514 Y16.4922 
G01 X-44.1568 Y16.4614 
G01 X-43.9693 Y16.4005 
G01 X-43.7937 Y16.3110 
G01 X-43.6342 Y16.1951 
G00 Z2.0000 
G00 X-42.8651 Y16.0557 
G01 Z-0.2000 F200.00 
G01 X-42.7257 Y16.1951 F200.00 
G01 X-42.5663 Y16.3110 
G01 X-42.3907 Y16.4005 
G01 X-42.2032 Y16.4614 
G01 X-42.0085 Y16.4922 
G01 X-41.8114 Y16.4922 
G01 X-41.6168 Y16.4614 
G01 X-41.4293 Y16.4005 
G01 X-41.2537 Y16.3110 
G01 X-41.0942 Y16.1951 
G01 X-40.9549 Y16.0557 
G01 X-40.8390 Y15.8963 
G01 X-40.7495 Y15.7207 
G01 X-40.6886 Y15.5332 
G01 X-40.6578 Y15.3385 
G01 X-40.6578 Y12.9570 
G01 X-40.6886 Y12.7624 
G01 X-40.7495 Y12.5749 
G01 X-40.8390 Y12.3993 
G01 X-40.9549 Y12.2398 
G01 X-41.0942 Y12.1005 
G01 X-41.2537 Y11.9846 
G01 X-41.4293 Y11.8951 
G01 X-41.6168 Y11.8342 
G01 X-41.8114 Y11.8034 
G01 X-42.0085 Y11.8034 
G01 X-42.2032 Y11.8342 
G01 X-42.3907 Y11.8951 
G01 X-42.5663 Y11.9846 
G01 X-42.7257 Y12.1005 
G01 X-42.8651 Y12.2398 
G01 X-42.9810 Y12.3993 
G01 X-43.0705 Y12.5749 
G01 X-43.1314 Y12.7624 
G01 X-43.1622 Y12.9570 
G01 X-43.1622 Y15.3385 
G01 X-43.1314 Y15.5332 
G01 X-43.0705 Y15.7207 
G01 X-42.9810 Y15.8963 
G01 X-42.8651 Y16.0557 
G00 Z2.0000 
G82 X-5.0800 Y21.5900 Z-0.5000 F100.00 R2.0000 P0.500000
G82 X-15.2400 Y21.5900 
G82 X-10.1600 Y11.4300 
G82 X-5.0800 Y11.4300 
G82 X-2.5400 Y21.5900 
G82 X-10.1600 Y21.5900 
G82 X-12.7000 Y21.5900 
G82 X-15.2400 Y11.4300 
G82 X-7.6200 Y11.4300 
G82 X-2.5400 Y11.4300 
G82 X-7.6200 Y21.5900 
G82 X-12.7000 Y11.4300 
G82 X-26.6700 Y15.2400 
G82 X-26.6700 Y17.7800 
G82 X-29.2100 Y15.2400 
G82 X-29.2100 Y17.7800 
G82 X-31.7500 Y15.2400 
G82 X-31.7500 Y17.7800 
G82 X-34.2900 Y15.2400 
G82 X-34.2900 Y17.7800 
G82 X-36.8300 Y15.2400 
G82 X-36.8300 Y17.7800 
G82 X-39.3700 Y15.2400 
G82 X-39.3700 Y17.7800 
G82 X-41.9100 Y15.2400 
G82 X-41.9100 Y17.7800 
G82 X-44.4500 Y15.2400 
G82 X-44.4500 Y17.7800 
G00 Z1.0000 
M05
M02
